X: 42357
T: Welcome Return, The
R: jig
M: 6/8
K: Dmajor
DFA d2c|dcd AFD|GAB AFD|E(3EEE EDB,|
A,B,D EFD|EFA d2c|BdB AFD|EFE D3:|
Bdg gae|F2d fed|BdB AFD|E(3EEE EDB,|
A,B,D EFD|EFA d2c|BdB AFD|EFE D3:|

